public/assets/icons/profil.svg

<svg width="18" height="20" viewBox="0 0 18 20" fill="none" xmlns="http://www.w3.org/2000/svg">
<path d="M12.3161 1.45446C11.4741 0.516515 10.298 0 9 0C7.69504 0 6.51512 0.51339 5.67701 1.44553C4.82983 2.38793 4.41705 3.66873 4.51397 5.05176C4.70608 7.78031 6.71848 9.99994 9 9.99994C11.2815 9.99994 13.2905 7.78076 13.4856 5.05265C13.5838 3.68212 13.1684 2.404 12.3161 1.45446ZM16.6152 19.9999H1.38482C1.18547 20.0026 0.988051 19.9594 0.806921 19.8734C0.625791 19.7874 0.46551 19.6609 0.337738 19.503C0.0564959 19.1561 -0.0568664 18.6825 0.0270736 18.2035C0.392256 16.1133 1.53194 14.3575 3.32323 13.1249C4.91463 12.0307 6.93049 11.4285 9 11.4285C11.0695 11.4285 13.0854 12.0312 14.6768 13.1249C16.4681 14.3571 17.6077 16.1129 17.9729 18.203C18.0569 18.682 17.9435 19.1557 17.6623 19.5026C17.5345 19.6606 17.3743 19.7872 17.1931 19.8732C17.012 19.9592 16.8146 20.0025 16.6152 19.9999Z" fill="#EFD372"/>
</svg>

<svg xmlns="http://www.w3.org/2000/svg" width="18" height="20" fill="none" xmlns:v="https://vecta.io/nano"><path d="M12.316 1.454C11.474.517 10.298 0 9 0 7.695 0 6.515.513 5.677 1.446c-.847.942-1.26 2.223-1.163 3.606C4.706 7.78 6.718 10 9 10s4.291-2.219 4.486-4.947c.098-1.371-.317-2.649-1.169-3.598zM16.615 20H1.385c-.199.003-.397-.041-.578-.127a1.35 1.35 0 0 1-.469-.37c-.281-.347-.395-.82-.311-1.3.365-2.09 1.505-3.846 3.296-5.079C4.915 12.031 6.93 11.429 9 11.429s4.085.603 5.677 1.696c1.791 1.232 2.931 2.988 3.296 5.078.084.479-.029.953-.311 1.3-.128.158-.288.285-.469.371s-.379.129-.578.127z" fill="#efd372"/></svg>
